Suru++-Ubuntu/apps/symbolic/freemind-symbolic.svg

<svg width="16" height="16" style="enable-background:new" version="1.1" xmlns="http://www.w3.org/2000/svg">
 <defs>
  <filter id="filter1085" x="-.3" y="-.11" width="1.608" height="1.215" style="color-interpolation-filters:sRGB">
   <feGaussianBlur stdDeviation=".804"/>
  </filter>
 </defs>
 <g transform="translate(-618.99999,-286)">
  <g transform="matrix(.32471675 0 0 .32471675 602.69229 209.4539)" style="fill:#808080">
   <path d="m53.300915 241.58369c0.353281 3.8895 3.186889 4.78926 3.340953 8.94447 0.08176 1.75488-2.227692 5.78877-2.204145 8.12238 0.01181 1.10592 0.550546 2.14425 1.461009 2.78519 1.725084 1.21379 5.344793 1.7052 10.172327 1.7052h0.288413c-4.077057 0-7.134417 1.08171-8.591322 2.05205-0.768928 0.51241-1.223805 1.3432-1.233648 2.22731 0.178392 5.9185 1.000731 12.78195 7.782925 12.96592 7.805208-0.0876 9.402294-12.22606 9.462875-17.24528-0.09728-3.38035-8.622904-21.55724-20.479387-21.55724zm43.114499 0c-11.856482 0-20.382091 18.17689-20.479387 21.55724 0.06058 5.01922 1.657666 17.15753 9.462875 17.24528 6.782199-0.18414 7.604543-7.04742 7.782924-12.96592-0.0098-0.88411-0.464749-1.7149-1.233645-2.22731-1.456909-0.97034-4.514272-2.05205-8.591324-2.05205h0.288414c4.827509 0 8.447244-0.49141 10.172328-1.7052 0.910434-0.64094 1.449356-1.67927 1.461007-2.78519 0.02363-2.33361-2.285914-6.3675-2.204146-8.12238 0.154073-4.15521 2.987687-5.05497 3.340954-8.94447zm-37.725186 3.23306a1.0778619 1.0778619 0 0 1 1.077862 1.07786 1.0778619 1.0778619 0 0 1-1.077862 1.07787 1.0778619 1.0778619 0 0 1-1.077863-1.07787 1.0778619 1.0778619 0 0 1 1.077863-1.07786zm32.335873 0a1.0778621 1.0778621 0 0 1 1.077863 1.07786 1.0778621 1.0778621 0 0 1-1.077863 1.07787 1.0778621 1.0778621 0 0 1-1.077862-1.07787 1.0778621 1.0778621 0 0 1 1.077862-1.07786zm-28.563355 4.98511a1.616793 1.616793 0 0 1 1.616793 1.61679 1.616793 1.616793 0 0 1-1.616793 1.6168 1.616793 1.616793 0 0 1-1.616794-1.6168 1.616793 1.616793 0 0 1 1.616794-1.61679zm24.790837 0a1.6167933 1.6167933 0 0 1 1.616794 1.61679 1.6167933 1.6167933 0 0 1-1.616794 1.6168 1.6167933 1.6167933 0 0 1-1.616794-1.6168 1.6167933 1.6167933 0 0 1 1.616794-1.61679zm-27.485493 5.79351a2.1557242 2.1557242 0 0 1 2.155725 2.15573 2.1557242 2.1557242 0 0 1-2.155725 2.15573 2.1557242 2.1557242 0 0 1-2.155725-2.15573 2.1557242 2.1557242 0 0 1 2.155725-2.15573zm30.180149 0a2.1557243 2.1557243 0 0 1 2.155725 2.15573 2.1557243 2.1557243 0 0 1-2.155725 2.15573 2.1557243 2.1557243 0 0 1-2.155725-2.15573 2.1557243 2.1557243 0 0 1 2.155725-2.15573zm-28.563356 11.85702a1.6167931 1.6167931 0 0 1 1.616794 1.61679 1.6167931 1.6167931 0 0 1-1.616794 1.6168 1.6167931 1.6167931 0 0 1-1.616793-1.6168 1.6167931 1.6167931 0 0 1 1.616793-1.61679zm26.946562 0a1.6167932 1.6167932 0 0 1 1.616794 1.61679 1.6167932 1.6167932 0 0 1-1.616794 1.6168 1.6167932 1.6167932 0 0 1-1.616794-1.6168 1.6167932 1.6167932 0 0 1 1.616794-1.61679zm-24.251906 6.46717a2.1557242 2.1557242 0 0 1 2.155726 2.15572 2.1557242 2.1557242 0 0 1-2.155726 2.15573 2.1557242 2.1557242 0 0 1-2.155724-2.15573 2.1557242 2.1557242 0 0 1 2.155724-2.15572zm21.55725 0a2.1557243 2.1557243 0 0 1 2.155725 2.15572 2.1557243 2.1557243 0 0 1-2.155725 2.15573 2.1557243 2.1557243 0 0 1-2.155725-2.15573 2.1557243 2.1557243 0 0 1 2.155725-2.15572z" style="fill:#808080"/>
   <circle cx="22.482" cy="275.954" r="0" style="fill:#808080"/>
   <path d="m74.858162 252.36204c-1.785861 0-3.233587 1.44775-3.233587 3.23358 0 2.15574 2.155726 2.15574 1.07786 4.31148v8.62286c0 1.19428 0.961456 2.15574 2.155727 2.15574 1.194269 0 2.155725-0.96146 2.155725-2.15574v-8.62286c-1.077865-2.15574 1.077861-2.15574 1.077861-4.31148 0-1.78583-1.447726-3.23358-3.233586-3.23358z" style="fill:#808080"/>
   <path transform="matrix(3.0796071,0,0,3.0796071,50.221308,235.73191)" d="m1 1.9003906c0.1147163 1.2629858 1.0339572 1.5550306 1.0839844 2.9042969 0.0265488 0.5698389-0.7224899 1.8789565-0.7148438 2.6367187 0.0038349 0.3591108 0.1789668 0.696173 0.4746094 0.9042969 0.5601637 0.394138 1.7351532 0.5546875 3.3027344 0.5546875h0.09375c-1.3238887 0-2.3159811 0.35093-2.7890625 0.6660156-0.2496838 0.1663882-0.3971945 0.4355708-0.4003907 0.7226558 0.0579269 1.921837 0.3250518 4.1512 2.5273438 4.210938 1.7128697-0.019224 2.4923845-1.821827 2.8320312-3.494141 0.1221054 0.202561 0.3347811 0.34375 0.5898438 0.34375 0.2550622 0 0.4677383-0.141189 0.5898438-0.34375 0.3396466 1.672303 1.1191613 3.474884 2.8320312 3.494141 2.202294-0.059793 2.46942-2.289101 2.527344-4.210938-0.003182-0.287085-0.150717-0.5562676-0.400391-0.7226558-0.473083-0.3150856-1.465175-0.6660156-2.789062-0.6660156h0.09375c1.567573 0 2.74257-0.1605495 3.302734-0.5546875 0.295633-0.2081239 0.470826-0.5451861 0.474609-0.9042969 0.007673-0.7577622-0.741395-2.0668798-0.714843-2.6367187 0.05003-1.3492663 0.969272-1.6413111 1.083984-2.9042969-3.1202 0-5.5020189 3.8444033-6.3203125 5.8984375-0.2855477-0.6444738 0.3710937-0.6688148 0.3710937-1.3496093 0-0.2889682-0.1177549-0.550375-0.3066406-0.7402344 0.0364184-0.417385 0.0976585-0.8606369 0.2285156-1.2695313 0.1075305-0.3360071 0.254302-0.6312881 0.4394532-0.8320312 0.1851512-0.2007432 0.3971705-0.3126787 0.6855466-0.3085938l0.00586-0.3476562c-0.3874879-0.0054877-0.7123337 0.1630869-0.9492191 0.4199219-0.2368854 0.2568347-0.3983708 0.5965029-0.515625 0.9628906-0.119354 0.372952-0.1917173 0.7726812-0.234375 1.1484375-0.124692-0.0522114-0.2606557-0.0820313-0.4042969-0.0820313-0.1435073 0-0.2796984 0.027959-0.4042969 0.0800782-0.0426935-0.375092-0.1133129-0.7742987-0.2324219-1.1464844-0.1172539-0.3663877-0.2787393-0.7060559-0.515625-0.9628906-0.2368857-0.256835-0.5597791-0.4254129-0.9472656-0.4199219l0.0039063 0.3476562c0.2883767-0.0040589 0.5003954 0.1078506 0.6855469 0.3085938 0.1851512 0.2007431 0.3319231 0.4960241 0.4394531 0.8320312 0.1306328 0.4081935 0.1914716 0.8507439 0.2285156 1.2675781-0.1900126 0.1900134-0.3085938 0.452243-0.3085937 0.7421876 0 0.6807945 0.6566416 0.7051355 0.3710937 1.3496093-0.818292-2.0540342-3.2001121-5.8984375-6.3203125-5.8984375zm1.75 1.0488282a0.34999981 0.34999981 0 0 1 0.3496094 0.3515624 0.34999981 0.34999981 0 0 1-0.3496094 0.3496094 0.34999981 0.34999981 0 0 1-0.3496094-0.3496094 0.34999981 0.34999981 0 0 1 0.3496094-0.3515624zm10.5 0a0.34999988 0.34999988 0 0 1 0.349609 0.3515624 0.34999988 0.34999988 0 0 1-0.349609 0.3496094 0.34999988 0.34999988 0 0 1-0.349609-0.3496094 0.34999988 0.34999988 0 0 1 0.349609-0.3515624zm-9.2753906 1.6191406a0.52499977 0.52499977 0 0 1 0.5253906 0.5253906 0.52499977 0.52499977 0 0 1-0.5253906 0.5253906 0.52499977 0.52499977 0 0 1-0.5253906-0.5253906 0.52499977 0.52499977 0 0 1 0.5253906-0.5253906zm8.0507816 0a0.52499987 0.52499987 0 0 1 0.52539 0.5253906 0.52499987 0.52499987 0 0 1-0.52539 0.5253906 0.52499987 0.52499987 0 0 1-0.525391-0.5253906 0.52499987 0.52499987 0 0 1 0.525391-0.5253906zm-8.9257816 1.8808594a0.69999976 0.69999976 0 0 1 0.7011718 0.7011718 0.69999976 0.69999976 0 0 1-0.7011718 0.6992188 0.69999976 0.69999976 0 0 1-0.6992188-0.6992188 0.69999976 0.69999976 0 0 1 0.6992188-0.7011718zm9.8007816 0a0.69999979 0.69999979 0 0 1 0.699218 0.7011718 0.69999979 0.69999979 0 0 1-0.699218 0.6992188 0.69999979 0.69999979 0 0 1-0.701172-0.6992188 0.69999979 0.69999979 0 0 1 0.701172-0.7011718zm-9.3125004 3.8515622a0.5249998 0.5249998 0 0 1 0.0371094 0 0.5249998 0.5249998 0 0 1 0.5253906 0.523438 0.5249998 0.5249998 0 0 1-0.5253906 0.52539 0.5249998 0.5249998 0 0 1-0.5253906-0.52539 0.5249998 0.5249998 0 0 1 0.4882812-0.523438zm8.7500004 0a0.52499983 0.52499983 0 0 1 0.037109 0 0.52499983 0.52499983 0 0 1 0.525391 0.523438 0.52499983 0.52499983 0 0 1-0.525391 0.52539 0.52499983 0.52499983 0 0 1-0.525391-0.52539 0.52499983 0.52499983 0 0 1 0.488282-0.523438zm-7.837891 2.09961a0.69999976 0.69999976 0 0 1 0.6992188 0.699218 0.69999976 0.69999976 0 0 1-0.6992188 0.701172 0.69999976 0.69999976 0 0 1-0.6992188-0.701172 0.69999976 0.69999976 0 0 1 0.6992188-0.699218zm7 0a0.69999979 0.69999979 0 0 1 0.699219 0.699218 0.69999979 0.69999979 0 0 1-0.699219 0.701172 0.69999979 0.69999979 0 0 1-0.699219-0.701172 0.69999979 0.69999979 0 0 1 0.699219-0.699218z" style="fill:#808080"/>
   <path transform="matrix(1.0184527 0 0 1.0184527 -.83718089 -4.4301654)" d="m74.323864 252.13954c-1.753504 0-3.174999 1.42152-3.174999 3.175 0 2.11668 2.116667 2.11668 1.058331 4.23336v8.46663c0 1.17264 0.944036 2.11668 2.116668 2.11668 1.172631 0 2.116667-0.94404 2.116667-2.11668v-8.46663c-1.058336-2.11668 1.058332-2.11668 1.058332-4.23336 0-1.75348-1.421496-3.175-3.174999-3.175z" style="fill:#808080;filter:url(#filter1085);opacity:.3"/>
  </g>
 </g>
</svg>

<svg xmlns="http://www.w3.org/2000/svg" width="16" height="16" version="1.1" style="enable-background:new">
 <defs>
  <filter id="filter1085" width="1.608" height="1.215" x="-.3" y="-.11" style="color-interpolation-filters:sRGB">
   <feGaussianBlur stdDeviation=".804"/>
  </filter>
 </defs>
 <g transform="translate(-618.99999,-286)">
  <g style="fill:#808080" transform="matrix(0.32471675,0,0,0.32471675,602.69229,209.4539)">
   <path d="m 53.300915,241.58369 c 0.353281,3.8895 3.186889,4.78926 3.340953,8.94447 0.08176,1.75488 -2.227692,5.78877 -2.204145,8.12238 0.01181,1.10592 0.550546,2.14425 1.461009,2.78519 1.725084,1.21379 5.344793,1.7052 10.172327,1.7052 h 0.288413 c -4.077057,0 -7.134417,1.08171 -8.591322,2.05205 -0.768928,0.51241 -1.223805,1.3432 -1.233648,2.22731 0.178392,5.9185 1.000731,12.78195 7.782925,12.96592 7.805208,-0.0876 9.402294,-12.22606 9.462875,-17.24528 -0.09728,-3.38035 -8.622904,-21.55724 -20.479387,-21.55724 z m 43.114499,0 c -11.856482,0 -20.382091,18.17689 -20.479387,21.55724 0.06058,5.01922 1.657666,17.15753 9.462875,17.24528 6.782199,-0.18414 7.604543,-7.04742 7.782924,-12.96592 -0.0098,-0.88411 -0.464749,-1.7149 -1.233645,-2.22731 -1.456909,-0.97034 -4.514272,-2.05205 -8.591324,-2.05205 h 0.288414 c 4.827509,0 8.447244,-0.49141 10.172328,-1.7052 0.910434,-0.64094 1.449356,-1.67927 1.461007,-2.78519 0.02363,-2.33361 -2.285914,-6.3675 -2.204146,-8.12238 0.154073,-4.15521 2.987687,-5.05497 3.340954,-8.94447 z m -37.725186,3.23306 a 1.0778619,1.0778619 0 0 1 1.077862,1.07786 1.0778619,1.0778619 0 0 1 -1.077862,1.07787 1.0778619,1.0778619 0 0 1 -1.077863,-1.07787 1.0778619,1.0778619 0 0 1 1.077863,-1.07786 z m 32.335873,0 a 1.0778621,1.0778621 0 0 1 1.077863,1.07786 1.0778621,1.0778621 0 0 1 -1.077863,1.07787 1.0778621,1.0778621 0 0 1 -1.077862,-1.07787 1.0778621,1.0778621 0 0 1 1.077862,-1.07786 z m -28.563355,4.98511 a 1.616793,1.616793 0 0 1 1.616793,1.61679 1.616793,1.616793 0 0 1 -1.616793,1.6168 1.616793,1.616793 0 0 1 -1.616794,-1.6168 1.616793,1.616793 0 0 1 1.616794,-1.61679 z m 24.790837,0 a 1.6167933,1.6167933 0 0 1 1.616794,1.61679 1.6167933,1.6167933 0 0 1 -1.616794,1.6168 1.6167933,1.6167933 0 0 1 -1.616794,-1.6168 1.6167933,1.6167933 0 0 1 1.616794,-1.61679 z m -27.485493,5.79351 a 2.1557242,2.1557242 0 0 1 2.155725,2.15573 2.1557242,2.1557242 0 0 1 -2.155725,2.15573 2.1557242,2.1557242 0 0 1 -2.155725,-2.15573 2.1557242,2.1557242 0 0 1 2.155725,-2.15573 z m 30.180149,0 a 2.1557243,2.1557243 0 0 1 2.155725,2.15573 2.1557243,2.1557243 0 0 1 -2.155725,2.15573 2.1557243,2.1557243 0 0 1 -2.155725,-2.15573 2.1557243,2.1557243 0 0 1 2.155725,-2.15573 z m -28.563356,11.85702 a 1.6167931,1.6167931 0 0 1 1.616794,1.61679 1.6167931,1.6167931 0 0 1 -1.616794,1.6168 1.6167931,1.6167931 0 0 1 -1.616793,-1.6168 1.6167931,1.6167931 0 0 1 1.616793,-1.61679 z m 26.946562,0 a 1.6167932,1.6167932 0 0 1 1.616794,1.61679 1.6167932,1.6167932 0 0 1 -1.616794,1.6168 1.6167932,1.6167932 0 0 1 -1.616794,-1.6168 1.6167932,1.6167932 0 0 1 1.616794,-1.61679 z m -24.251906,6.46717 a 2.1557242,2.1557242 0 0 1 2.155726,2.15572 2.1557242,2.1557242 0 0 1 -2.155726,2.15573 2.1557242,2.1557242 0 0 1 -2.155724,-2.15573 2.1557242,2.1557242 0 0 1 2.155724,-2.15572 z m 21.55725,0 a 2.1557243,2.1557243 0 0 1 2.155725,2.15572 2.1557243,2.1557243 0 0 1 -2.155725,2.15573 2.1557243,2.1557243 0 0 1 -2.155725,-2.15573 2.1557243,2.1557243 0 0 1 2.155725,-2.15572 z" style="fill:#808080"/>
   <circle cx="22.482" cy="275.954" r="0" style="fill:#808080"/>
   <path style="fill:#808080" d="m 74.858162,252.36204 c -1.785861,0 -3.233587,1.44775 -3.233587,3.23358 0,2.15574 2.155726,2.15574 1.07786,4.31148 v 3.23358 5.38928 c 0,1.19428 0.961456,2.15574 2.155727,2.15574 1.194269,0 2.155725,-0.96146 2.155725,-2.15574 v -5.38928 -3.23358 c -1.077865,-2.15574 1.077861,-2.15574 1.077861,-4.31148 0,-1.78583 -1.447726,-3.23358 -3.233586,-3.23358 z"/>
   <path d="M 1 1.9003906 C 1.1147163 3.1633764 2.0339572 3.4554212 2.0839844 4.8046875 C 2.1105332 5.3745264 1.3614945 6.683644 1.3691406 7.4414062 C 1.3729755 7.800517 1.5481074 8.1375792 1.84375 8.3457031 C 2.4039137 8.7398411 3.5789032 8.9003906 5.1464844 8.9003906 L 5.2402344 8.9003906 C 3.9163457 8.9003906 2.9242533 9.2513206 2.4511719 9.5664062 C 2.2014881 9.7327944 2.0539774 10.001977 2.0507812 10.289062 C 2.1087081 12.210899 2.375833 14.440262 4.578125 14.5 C 6.2909947 14.480776 7.0705095 12.678173 7.4101562 11.005859 C 7.5322616 11.20842 7.7449373 11.349609 8 11.349609 C 8.2550622 11.349609 8.4677383 11.20842 8.5898438 11.005859 C 8.9294904 12.678162 9.7090051 14.480743 11.421875 14.5 C 13.624169 14.440207 13.891295 12.210899 13.949219 10.289062 C 13.946037 10.001977 13.798502 9.7327944 13.548828 9.5664062 C 13.075745 9.2513206 12.083653 8.9003906 10.759766 8.9003906 L 10.853516 8.9003906 C 12.421089 8.9003906 13.596086 8.7398411 14.15625 8.3457031 C 14.451883 8.1375792 14.627076 7.800517 14.630859 7.4414062 C 14.638532 6.683644 13.889464 5.3745264 13.916016 4.8046875 C 13.966046 3.4554212 14.885288 3.1633764 15 1.9003906 C 11.8798 1.9003906 9.4979811 5.7447939 8.6796875 7.7988281 C 8.3941398 7.1543543 9.0507812 7.1300133 9.0507812 6.4492188 C 9.0507812 6.1602506 8.9330263 5.8988438 8.7441406 5.7089844 C 8.780559 5.2915994 8.8417991 4.8483475 8.9726562 4.4394531 C 9.0801867 4.103446 9.2269582 3.808165 9.4121094 3.6074219 C 9.5972606 3.4066787 9.8092799 3.2947432 10.097656 3.2988281 L 10.103516 2.9511719 C 9.7160281 2.9456842 9.3911823 3.1142588 9.1542969 3.3710938 C 8.9174115 3.6279285 8.7559261 3.9675967 8.6386719 4.3339844 C 8.5193179 4.7069364 8.4469546 5.1066656 8.4042969 5.4824219 C 8.2796049 5.4302105 8.1436412 5.4003906 8 5.4003906 C 7.8564927 5.4003906 7.7203016 5.4283496 7.5957031 5.4804688 C 7.5530096 5.1053768 7.4823902 4.7061701 7.3632812 4.3339844 C 7.2460273 3.9675967 7.0845419 3.6279285 6.8476562 3.3710938 C 6.6107705 3.1142588 6.2878771 2.9456809 5.9003906 2.9511719 L 5.9042969 3.2988281 C 6.1926736 3.2947692 6.4046923 3.4066787 6.5898438 3.6074219 C 6.774995 3.808165 6.9217669 4.103446 7.0292969 4.4394531 C 7.1599297 4.8476466 7.2207685 5.290197 7.2578125 5.7070312 C 7.0677999 5.8970446 6.9492187 6.1592742 6.9492188 6.4492188 C 6.9492188 7.1300133 7.6058604 7.1543543 7.3203125 7.7988281 C 6.5020205 5.7447939 4.1202004 1.9003906 1 1.9003906 z M 2.75 2.9492188 A 0.34999981 0.34999981 0 0 1 3.0996094 3.3007812 A 0.34999981 0.34999981 0 0 1 2.75 3.6503906 A 0.34999981 0.34999981 0 0 1 2.4003906 3.3007812 A 0.34999981 0.34999981 0 0 1 2.75 2.9492188 z M 13.25 2.9492188 A 0.34999988 0.34999988 0 0 1 13.599609 3.3007812 A 0.34999988 0.34999988 0 0 1 13.25 3.6503906 A 0.34999988 0.34999988 0 0 1 12.900391 3.3007812 A 0.34999988 0.34999988 0 0 1 13.25 2.9492188 z M 3.9746094 4.5683594 A 0.52499977 0.52499977 0 0 1 4.5 5.09375 A 0.52499977 0.52499977 0 0 1 3.9746094 5.6191406 A 0.52499977 0.52499977 0 0 1 3.4492188 5.09375 A 0.52499977 0.52499977 0 0 1 3.9746094 4.5683594 z M 12.025391 4.5683594 A 0.52499987 0.52499987 0 0 1 12.550781 5.09375 A 0.52499987 0.52499987 0 0 1 12.025391 5.6191406 A 0.52499987 0.52499987 0 0 1 11.5 5.09375 A 0.52499987 0.52499987 0 0 1 12.025391 4.5683594 z M 3.0996094 6.4492188 A 0.69999976 0.69999976 0 0 1 3.8007812 7.1503906 A 0.69999976 0.69999976 0 0 1 3.0996094 7.8496094 A 0.69999976 0.69999976 0 0 1 2.4003906 7.1503906 A 0.69999976 0.69999976 0 0 1 3.0996094 6.4492188 z M 12.900391 6.4492188 A 0.69999979 0.69999979 0 0 1 13.599609 7.1503906 A 0.69999979 0.69999979 0 0 1 12.900391 7.8496094 A 0.69999979 0.69999979 0 0 1 12.199219 7.1503906 A 0.69999979 0.69999979 0 0 1 12.900391 6.4492188 z M 3.5878906 10.300781 A 0.5249998 0.5249998 0 0 1 3.625 10.300781 A 0.5249998 0.5249998 0 0 1 4.1503906 10.824219 A 0.5249998 0.5249998 0 0 1 3.625 11.349609 A 0.5249998 0.5249998 0 0 1 3.0996094 10.824219 A 0.5249998 0.5249998 0 0 1 3.5878906 10.300781 z M 12.337891 10.300781 A 0.52499983 0.52499983 0 0 1 12.375 10.300781 A 0.52499983 0.52499983 0 0 1 12.900391 10.824219 A 0.52499983 0.52499983 0 0 1 12.375 11.349609 A 0.52499983 0.52499983 0 0 1 11.849609 10.824219 A 0.52499983 0.52499983 0 0 1 12.337891 10.300781 z M 4.5 12.400391 A 0.69999976 0.69999976 0 0 1 5.1992188 13.099609 A 0.69999976 0.69999976 0 0 1 4.5 13.800781 A 0.69999976 0.69999976 0 0 1 3.8007812 13.099609 A 0.69999976 0.69999976 0 0 1 4.5 12.400391 z M 11.5 12.400391 A 0.69999979 0.69999979 0 0 1 12.199219 13.099609 A 0.69999979 0.69999979 0 0 1 11.5 13.800781 A 0.69999979 0.69999979 0 0 1 10.800781 13.099609 A 0.69999979 0.69999979 0 0 1 11.5 12.400391 z" transform="matrix(3.0796071,0,0,3.0796071,50.221308,235.73191)" style="fill:#808080"/>
   <path style="opacity:0.3;fill:#808080;filter:url(#filter1085)" d="m 74.323864,252.13954 c -1.753504,0 -3.174999,1.42152 -3.174999,3.175 0,2.11668 2.116667,2.11668 1.058331,4.23336 v 3.17499 5.29164 c 0,1.17264 0.944036,2.11668 2.116668,2.11668 1.172631,0 2.116667,-0.94404 2.116667,-2.11668 v -5.29164 -3.17499 c -1.058336,-2.11668 1.058332,-2.11668 1.058332,-4.23336 0,-1.75348 -1.421496,-3.175 -3.174999,-3.175 z" transform="matrix(1.0184527,0,0,1.0184527,-0.83718089,-4.4301654)"/>
  </g>
 </g>
</svg>
